X: 75
T:The Graceful Girl
% Nottingham Music Database
S:Bob McQuillen Jan 1977, via PR
M:4/4
L:1/4
K:G
"G"Bd d/2e/2d/2c/2|Bd d/2e/2d/2c/2|Bd d/2e/2d/2B/2|"Am"cA3|"D"FA A/2B/2A/2G/2|
FA A/2B/2A/2G/2|"D7"FA d/2e/2d/2c/2|"G"cB3|"G"Bd d/2e/2d/2c/2|Bd d/2e/2d/2c/2|
"G"Bd g/2a/2b/2g/2|"D"ba3|"Am"ae "D7"e/2a/2b/2a/2|"G"gd d/2g/2a/2g/2|\
"D"f/2e/2d/2c/2 BA|"G"G4||
"G"Bd D/2E/2G/2A/2|Bd D/2E/2G/2A/2|"G"B/2G/2B/2d/2 "Am"c/2B/2A/2G/2|"D"FA3|\
"D"FA D/2E/2F/2G/2|
FA D/2E/2F/2G/2|"D"FA d/2e/2d/2c/2|"G"cB3|"G"Bd D/2E/2G/2A/2|Bd D/2E/2G/2A/2|
"G"B/2G/2B/2d/2 g/2b/2a/2g/2|"Am"fe3|"Am"ea "D7"a/2e/2b/2a/2|\
"G"dg g/2d/2a/2g/2|"D"f/2e/2d/2e/2 fa|"G"g4||


